X:12
T:White Cockade. JBs.012
S:Jas.Blackshaw MS, 1837, N.Shropshire
Z:T.Weatherall 200
M:4/4
L:1/8
Q:180
R:Scots Measure
A:North Shropshire
K:G
GA|B2B2cBAG|BABc B2gf|edcB cBAG|B2A2A2GA|!
B2B2cBAG|B2d2g3a|bagf efge|d2B2B2:|!
|:Bcd2cBg2Bc|d2B2B2Bc|d2cBg2fg|a2A2A2GA|!
B2B2cBAG|B2d2g3a|bagf efge|d2B2B2:|

